tools/download-figma-icons/icons/solid/browser-settings.svg

<svg width="24" height="24" viewBox="0 0 24 24" fill="none" xmlns="http://www.w3.org/2000/svg">
<path fill-rule="evenodd" clip-rule="evenodd" d="M6.75 4.5C6.75 4.9125 7.0875 5.25 7.5 5.25C7.9125 5.25 8.25 4.9125 8.25 4.5C8.25 4.0875 7.9125 3.75 7.5 3.75C7.0875 3.75 6.75 4.0875 6.75 4.5ZM4.5 4.5C4.5 4.9125 4.8375 5.25 5.25 5.25C5.6625 5.25 6 4.9125 6 4.5C6 4.0875 5.6625 3.75 5.25 3.75C4.8375 3.75 4.5 4.0875 4.5 4.5ZM2.25 4.5C2.25 4.9125 2.5875 5.25 3 5.25C3.4125 5.25 3.75 4.9125 3.75 4.5C3.75 4.0875 3.4125 3.75 3 3.75C2.5875 3.75 2.25 4.0875 2.25 4.5ZM3.0075 1.5H20.9925C22.65 1.5 24 2.835 24 4.47V17.28C24 18.915 22.65 20.25 20.9925 20.25C20.58 20.25 20.2425 19.9125 20.2425 19.5C20.2425 19.0875 20.58 18.75 20.9925 18.75C21.825 18.75 22.5 18.09 22.5 17.28V7.5H1.5V16.905C1.5 17.7375 2.1975 18.75 3.0075 18.75C3.42 18.75 3.7575 19.0875 3.7575 19.5C3.7575 19.9125 3.42 20.25 3.0075 20.25C1.2825 20.25 0 18.4875 0 16.905V4.47C0 2.835 1.35 1.5 3.0075 1.5ZM9.87752 15.7501C9.87752 16.9201 10.83 17.8726 12 17.8726C13.17 17.8726 14.1225 16.9201 14.1225 15.7501C14.1225 14.5801 13.17 13.6276 12 13.6276C10.83 13.6276 9.87752 14.5801 9.87752 15.7501ZM17.1075 16.4251L17.97 16.9201C18.195 17.0551 18.36 17.2726 18.435 17.5276C18.5025 17.7826 18.465 18.0526 18.33 18.2851L17.3625 19.9651C17.085 20.4451 16.4775 20.6026 15.9975 20.3326L15.1425 19.8376C14.7825 20.1151 14.3925 20.3401 13.965 20.5126V21.5026C13.965 22.0501 13.5225 22.5001 12.975 22.5001H11.025C10.4775 22.5001 10.035 22.0501 10.035 21.5026V20.5126C9.60751 20.3401 9.21751 20.1151 8.85751 19.8376L8.00251 20.3326C7.53001 20.6026 6.91501 20.4451 6.63751 19.9651L5.67001 18.2851C5.53501 18.0526 5.49751 17.7826 5.56501 17.5276C5.64001 17.2726 5.80501 17.0551 6.03001 16.9201L6.89251 16.4251C6.86251 16.2001 6.84001 15.9751 6.84001 15.7501C6.84001 15.5251 6.86251 15.3001 6.89251 15.0751L6.03001 14.5801C5.80501 14.4451 5.64001 14.2276 5.56501 13.9726C5.49751 13.7176 5.53501 13.4476 5.67001 13.2151L6.63751 11.5351C6.91501 11.0551 7.53001 10.8976 8.00251 11.1676L8.85751 11.6626C9.21751 11.3851 9.60751 11.1601 10.035 10.9876V9.9976C10.035 9.4501 10.4775 9.0001 11.025 9.0001H12.975C13.5225 9.0001 13.965 9.4501 13.965 9.9976V10.9876C14.3925 11.1601 14.7825 11.3851 15.1425 11.6626L15.9975 11.1676C16.4775 10.8976 17.085 11.0551 17.3625 11.5351L18.33 13.2151C18.465 13.4476 18.5025 13.7176 18.435 13.9726C18.36 14.2276 18.195 14.4451 17.97 14.5801L17.1075 15.0751C17.1375 15.3001 17.16 15.5251 17.16 15.7501C17.16 15.9751 17.1375 16.2001 17.1075 16.4251Z" fill="black"/>
</svg>

<svg xmlns="http://www.w3.org/2000/svg" width="24" height="24" fill="none" viewBox="0 0 24 24"><path fill="currentColor" fill-rule="evenodd" d="M6.75 4.5c0 .412.338.75.75.75s.75-.338.75-.75a.75.75 0 0 0-.75-.75.75.75 0 0 0-.75.75m-2.25 0c0 .412.338.75.75.75S6 4.912 6 4.5a.75.75 0 0 0-.75-.75.75.75 0 0 0-.75.75m-2.25 0c0 .412.337.75.75.75s.75-.338.75-.75A.75.75 0 0 0 3 3.75a.75.75 0 0 0-.75.75m.757-3h17.986C22.65 1.5 24 2.835 24 4.47v12.81c0 1.635-1.35 2.97-3.008 2.97a.75.75 0 0 1-.75-.75c0-.413.338-.75.75-.75.833 0 1.508-.66 1.508-1.47V7.5h-21v9.405c0 .832.697 1.845 1.507 1.845.413 0 .75.337.75.75s-.337.75-.75.75C1.282 20.25 0 18.488 0 16.905V4.47C0 2.835 1.35 1.5 3.008 1.5m6.87 14.25c0 1.17.953 2.123 2.123 2.123s2.123-.953 2.123-2.123-.953-2.122-2.123-2.122-2.122.952-2.122 2.122m7.23.675.863.495c.225.135.39.353.465.608a1 1 0 0 1-.105.757l-.967 1.68c-.278.48-.886.638-1.365.368l-.855-.495q-.538.416-1.178.675v.99a.995.995 0 0 1-.99.997h-1.95a.995.995 0 0 1-.99-.997v-.99a5 5 0 0 1-1.177-.675l-.855.495a1.005 1.005 0 0 1-1.365-.368l-.968-1.68a1 1 0 0 1-.105-.757c.075-.255.24-.473.465-.608l.863-.495a5 5 0 0 1-.053-.675c0-.225.023-.45.053-.675l-.863-.495a1.05 1.05 0 0 1-.465-.607 1 1 0 0 1 .105-.758l.968-1.68c.277-.48.892-.637 1.365-.367l.855.495q.538-.417 1.177-.675v-.99c0-.548.442-.998.99-.998h1.95c.548 0 .99.45.99.998v.99c.428.172.818.397 1.178.675l.854-.495a1.003 1.003 0 0 1 1.366.367l.967 1.68a1 1 0 0 1 .105.758 1.05 1.05 0 0 1-.465.607l-.862.495c.03.225.052.45.052.675s-.023.45-.052.675" clip-rule="evenodd"/></svg>
